svg/weather_cloudy_arrow_right.svg

<svg xmlns="http://www.w3.org/2000/svg" viewBox="0 0 24 24"><path d="m6 7 .69.06A5.5 5.5 0 0 1 12 3a5.5 5.5 0 0 1 5.5 5.5l-.08.95c.46-.29 1-.45 1.58-.45a3 3 0 0 1 3 3 3 3 0 0 1-3 3H6a4 4 0 0 1-4-4 4 4 0 0 1 4-4m0 2a2 2 0 0 0-2 2 2 2 0 0 0 2 2h13a1 1 0 0 0 1-1 1 1 0 0 0-1-1h-3.5V8.5A3.5 3.5 0 0 0 12 5a3.5 3.5 0 0 0-3.5 3.5V9zm16 10-3 3v-2H2v-2h17v-2z"/></svg>

<?xml version="1.0" encoding="UTF-8"?><!DOCTYPE svg PUBLIC "-//W3C//DTD SVG 1.1//EN" "http://www.w3.org/Graphics/SVG/1.1/DTD/svg11.dtd"><svg xmlns="http://www.w3.org/2000/svg" xmlns:xlink="http://www.w3.org/1999/xlink" version="1.1" id="mdi-weather-cloudy-arrow-right" width="24" height="24" viewBox="0 0 24 24"><path d="M6,7L6.69,7.06C7.32,4.72 9.46,3 12,3A5.5,5.5 0 0,1 17.5,8.5L17.42,9.45C17.88,9.16 18.42,9 19,9A3,3 0 0,1 22,12A3,3 0 0,1 19,15H6A4,4 0 0,1 2,11A4,4 0 0,1 6,7M6,9A2,2 0 0,0 4,11A2,2 0 0,0 6,13H19A1,1 0 0,0 20,12A1,1 0 0,0 19,11H15.5V8.5A3.5,3.5 0 0,0 12,5A3.5,3.5 0 0,0 8.5,8.5V9H6M22,19L19,22V20H2V18H19V16L22,19" /></svg>
